X: 41309
T: Tune For Tom
R: jig
M: 6/8
K: Amajor
ecB ABA|EAc BcB|ecB ABA|EAc BcB|
ecB ABA|EAc BAF|EAc BAF|EAG Afe|
ecB ABA|EAc BAA|ecB ABA|EAc B2f|
ecB c2B|BAc BAF|EAc BAF|EAG A2B||
cea f3|eAc BAF|cBA ece|fec B3|
cea f3|eAc BAF|EGA BAG|EAG A2B|
cea f3|eAc BAF|cBA ece|fec B2A|
cea f3|eAc BAF|EFA BAF|EAG Aaf||

